src/assets/images/rules-icon.svg

<?xml version="1.0" encoding="UTF-8"?>
<svg width="22px" height="24px" viewBox="0 0 22 24" version="1.1" xmlns="http://www.w3.org/2000/svg" xmlns:xlink="http://www.w3.org/1999/xlink">
    <!-- Generator: Sketch 55.2 (78181) - https://sketchapp.com -->
    <title>spreadsheet</title>
    <desc>Created with Sketch.</desc>
    <g id="Symbols" stroke="none" stroke-width="1" fill="none" fill-rule="evenodd">
        <g id="Icons/24px/RulesW" transform="translate(-1.000000, 0.000000)">
            <g id="spreadsheet" transform="translate(1.000000, 0.000000)">
                <path d="M21.3627129,0 L0.023391991,0 L0.023391991,23.9533988 L12.5205403,23.9533988 C13.2944863,23.9533988 13.996246,23.6385206 14.5044736,23.1302931 C14.5053873,23.1312068 20.540521,17.0960731 20.540521,17.0960731 C21.0478348,16.5869319 21.3627129,15.8851721 21.3627129,15.1112262 L21.3627129,0 Z M16.2334821,17.9182651 L13.8275792,20.3241679 L13.8275792,17.9182651 L16.2334821,17.9182651 Z" id="Shape" fill="#FFFFFF"></path>
                <path d="M17.055674,2.80703892 L4.33043091,2.80703892 L4.33043091,15.1112262 L17.055674,15.1112262 L17.055674,2.80703892 Z M15.6521545,8.09362888 L13.8275792,8.09362888 L13.8275792,4.21055838 L15.6521545,4.21055838 L15.6521545,8.09362888 Z M13.8275792,9.49714834 L15.6521545,9.49714834 L15.6521545,10.9006678 L13.8275792,10.9006678 L13.8275792,9.49714834 Z M12.4240598,10.9006678 L5.73395037,10.9006678 L5.73395037,9.49714834 L12.4240598,9.49714834 L12.4240598,10.9006678 Z M12.4240598,4.21055838 L12.4240598,8.09362888 L5.73395037,8.09362888 L5.73395037,4.21055838 L12.4240598,4.21055838 Z M5.73395037,12.3041873 L12.4240598,12.3041873 L12.4240598,13.7077067 L5.73395037,13.7077067 L5.73395037,12.3041873 Z M13.8275792,13.7077067 L13.8275792,12.3041873 L15.6521545,12.3041873 L15.6521545,13.7077067 L13.8275792,13.7077067 Z" id="Shape" fill="#1F496A" fill-rule="nonzero"></path>
            </g>
        </g>
    </g>
</svg>

<?xml version="1.0" encoding="UTF-8"?>
<svg version="1.1" viewBox="0 0 22 24" xmlns="http://www.w3.org/2000/svg">
<title>spreadsheet</title>
<desc>Created with Sketch.</desc>
<g fill="none" fill-rule="evenodd">
<g transform="translate(-1)">
<g transform="translate(1)">
<path d="m21.363 0h-21.339v23.953h12.497c0.77395 0 1.4757-0.31488 1.9839-0.82311 9.137e-4 9.137e-4 6.036-6.0342 6.036-6.0342 0.50731-0.50914 0.82219-1.2109 0.82219-1.9848v-15.111zm-5.1292 17.918-2.4059 2.4059v-2.4059h2.4059z" fill="#fff"/>
<path d="m17.056 2.807h-12.725v12.304h12.725v-12.304zm-1.4035 5.2866h-1.8246v-3.8831h1.8246v3.8831zm-1.8246 1.4035h1.8246v1.4035h-1.8246v-1.4035zm-1.4035 1.4035h-6.6901v-1.4035h6.6901v1.4035zm0-6.6901v3.8831h-6.6901v-3.8831h6.6901zm-6.6901 8.0936h6.6901v1.4035h-6.6901v-1.4035zm8.0936 1.4035v-1.4035h1.8246v1.4035h-1.8246z" fill="#1F496A" fill-rule="nonzero"/>
</g>
</g>
</g>
</svg>
